X:1
T:Decoration of the Christmas Tree
T:Decoration of the Christmas Tree
T:The Nutcracker, Piano Arrangement for 3 hands
T:Hinci
C:Hinci
%%score { ( 1 4 ) | 2 | 3 }
L:1/8
Q:1/4=126
M:4/4
K:D
V:1 treble nm="Piano" snm="Pno."
V:4 treble 
V:2 bass 
V:3 bass 
V:1
"^Allegro non troppo" z8 | z8 |!mf! (a3 f/d/) (a3 f/^d/) | (a3 f/e/) (a3 f/e/) | %4
 (d3 e/f/) (B3 d/f/) | (^A3 d/f/) (e/f/e/d/ B/c/B/=A/) | (a3 f/d/) (a3 f/^d/) | %7
 (a3 f/e/) (a3 f/e/) | (d3 e/f/) (^G3 d/f/) | (A3 d/f/) (B/d/f/e/ f/e/c/A/) | %10
!f! ([Aa]3 f/d/) ([Aa]3 f/^d/) | ([Aa]3 f/e/) ([Aa]3 f/e/) | ([Dd]3 e/f/) ([B,B]3 d/f/) | %13
 ([^A,^A]3 d/f/) (e/f/e/d/ B/c/B/=A/) | ([Aa]3 f/d/) ([Aa]3 f/^d/) | ([Aa]3 f/e/) ([Aa]3 f/e/) | %16
 ([Dd]3 e/f/) ([B,B]3 d/f/) | [^A,^A-]2 A/(d/f/e/ d) z!mp! (E/F/G/=A/) |!<(! (_B3 A/G/) (B3 A/G/) | %19
 (_B3 A/G/)!<)!!f! (=B/A/G/F/ E/F/G/A/) |!mp!!<(! (_B3 A/G/) (B3 A/G/) | %21
 (_B3 A/G/)!<)!!f! (=B/A/G/F/ E/F/G/B/) |!mp!!<(! (=c3 B/A/) (c3 B/A/) | %23
 (=c3 B/A/)!<)!!f! (^c/B/A/^G/ F/G/A/B/) |!mp!!<(! (=c3 B/A/) (c3 B/A/) | %25
 (=c3 B/A/)!<)!!f! (^c/B/A/^G/ F/G/A/c/) | (d/c/B/A/ ^G/A/B/d/) (e/d/c/B/ A/B/c/e/) | %27
 (f/e/^d/c/ ^B/c/d/f/) (g/f/e/=d/ =c/d/e/g/) | (a/f/e/d/ c/d/e/g/) (a/f/e/d/ c/d/e/g/) | %29
 (a/g/f/e/ ^d/e/f/g/) (a/g/f/e/ d/e/f/g/) | (a/g/f/e/) (a/g/f/e/) (a/g/f/e/) (a/g/f/e/) | %31
 (a/g/f/e/) (a/g/f/e/) (a/g/f/e/) (a/g/f/e/) | ([aa']3 f/d/) ([aa']3 f/^d/) | %33
 ([aa']3 f/e/) ([aa']3 f/e/) | ([dd']3 e/f/) ([Bb]3 d/f/) | ([^A^a]3 d/f/) (e/f/e/d/ B/c/B/=A/) | %36
 ([aa']3 f/d/) ([aa']3 f/^d/) | ([aa']3 f/e/) ([aa']3 f/e/) | ([dd']3 e/f/) ([Bb]3 d/f/) | %39
 [^A^a-]2 a/(d'/f'/e'/[Q:1/4=80] d')"_scherzando"!p! (d/e/ f).d | %40
"^Poco più sostenuto."[Q:1/4=92] (7:4:7(c/d/c/d/c/d/c/ B) z z (B/c/ d).B | %41
 (7:4:7(A/B/A/B/A/B/A/ G) z z (G/A/ B).G | %42
!<(! (5:4:5(F/4G/4F/4G/4F/4E) (5:4:5(G/4A/4G/4A/4G/4F) (5:4:5(A/4B/4A/4B/4A/4G) (5:4:5(B/4c/4B/4c/4B/4!<)!!mf!A) | %43
!>(! (3(c/d/c/B/c/) (e/d/c/!>)!!p!B/ c/)(c/d/[Q:1/4=80]e/ f).d | %44
[Q:1/4=92] (7:4:7(c/d/c/d/c/d/c/ B) z z (B/c/ d).B | (7:4:7(A/B/A/B/A/B/A/ G) z z (G/A/ B).G | %46
!<(! (5:4:5(F/4G/4F/4G/4F/4E) (5:4:5(G/4A/4G/4A/4G/4F) (5:4:5(A/4B/4A/4B/4A/4G) (5:4:5(B/4c/4B/4c/4B/4!<)!!mf!A) | %47
 (3(c/d/c/B/c/) (e/d/c/B/ A/) (a/^g/a/) .c'.b | [fa]4 !>![fa]2 [eg]2 | %49
 !>![eg]2 [df]2 !>![df]2 [ce]2 | [G,G]4 z/ (A,/^G,/A,/ .B,).A, | A,4 z/ (f/e/f/ .a).g | %52
 ([df]4 e/)(e/^d/e/ .g).f | ([ce]4 d/)(d/c/d/ .f).e | %54
 (d4!>(! c/)"^rit.".c/.^B/[Q:1/4=88].c/ ([Gce][DFd]) | %55
[Q:1/4=86] ([E^Ac][FB])[Q:1/4=84] ([A,F=A]!>)!!p![B,G])[Q:1/4=82] [^A,CF]{c}[Q:1/4=80] d/e/ fd | %56
[Q:1/4=92]"^a tempo" (7:4:7(c/d/c/d/c/d/c/ B) z z (B/c/ d).B | %57
 (7:4:7(A/B/A/B/A/B/A/ G) z z (G/A/ B).G | %58
!<(! (5:4:5(F/4G/4F/4G/4F/4E) (5:4:5(G/4A/4G/4A/4G/4F) (5:4:5(A/4B/4A/4B/4A/4G) (5:4:5(B/4c/4B/4c/4B/4!<)!!mf!A) | %59
!>(! (3(c/d/c/B/c/) (e/d/c/!>)!!p!B/ c/)(c/d/[Q:1/4=80]e/ f).d | %60
[Q:1/4=92] (7:4:7(c/d/c/d/c/d/c/ B) z z (B/c/ d).B | (7:4:7(A/B/A/B/A/B/A/ G) z z (G/A/ B).G | %62
"_accel."[Q:1/4=94]!<(! (5:4:5(F/4G/4F/4G/4F/4E)[Q:1/4=96] (5:4:5(G/4A/4G/4A/4G/4F)[Q:1/4=98] (5:4:5(A/4B/4A/4B/4A/4G)[Q:1/4=100] (5:4:5(B/4c/4B/4c/4B/4!<)!!mf!A) | %63
 (3(c/d/c/B/c/) (e/d/c/B/ A/)[Q:1/4=104]!<(! .[Aa]/.[Bb]/.[cc']/[Q:1/4=108] .[dd']/.[ee']/.[ff']/.[gg']/!<)! | %64
"^Tempo I."[Q:1/4=126]!f! ([aa']3 f/d/) ([aa']3 f/^d/) | ([aa']3 f/e/) ([aa']3 f/e/) | %66
 ([dd']3 e/f/) ([Bb]3 d/f/) | ([^A^a]3 d/f/) (e/f/e/d/ B/c/B/=A/) | ([aa']3 f/d/) ([aa']3 f/^d/) | %69
 ([aa']3 f/e/) ([aa']3 f/e/) | ([dd']3 e/f/) ([Bb]3 d/f/) | %71
 [^A^a-]2 a/(d'/f'/e'/"^Più Moderato."[Q:1/4=108] d') z z2 | %72
 z2 (3:2:5([F^G]/[B,A]/[FG]/[B,A]/[FG]) z2 (3:2:5([A,=C]/[B,F]/[A,C]/[B,F]/[A,C]) | %73
 z2!p! (3:2:5([=C,A,]/[E,B,]/[C,A,]/[E,B,]/[C,A,])!mp! (3:2:5([=CA]/[_EB]/[CA]/[EB]/[CA])!mf! (3:2:5([=ca]/[_eb]/[ca]/[eb]/[ca]) | %74
 z2!p! (3:2:5([AB]/[D=c]/[AB]/[Dc]/[AB]) z2 (3:2:5([=C_E]/[DA]/[CE]/[DA]/[CE]) | %75
 z2 (3:2:5([_E,=C]/[G,D]/[E,C]/[G,D]/[E,C])!mp! (3:2:5([_E=c]/[Fd]/[Ec]/[Fd]/[Ec])!mf! (3:2:5([_e=c']/[fd']/[ec']/[fd']/[ec']) | %76
[K:bass] z4[K:treble]!p! (6:4:6([F^d]/[A^e]/[Fd]/[Ae]/[Fd]/[Ae]/) (6:4:6([a^f']/[^d'^g']/[af']/[d'g']/[af']/[d'g']/ | %77
 [f'a']) z z2!mp! (6:4:6([=ca]/[fb]/[ca]/[fb]/[ca]/[fb]/) (6:4:6([=c'a']/[e'b']/[c'a']/[e'b']/[c'a']/[e'b']/) | %78
!mf! [a'=c''] z"^un poco acclerando"[Q:1/4=110]"_cresc." (6:4:6(a/b/=c'/d'/_e'/d'/ (3:2:5c'/b/a/^g/a)[Q:1/4=112] (6:4:6(a/b/c'/d'/e'/d'/ | %79
[Q:1/4=114] (6:4:6=c'/b/a/^g/a/g/) (6:4:6(a/b/c'/b/a/g/)[Q:1/4=116] (6:4:6(a/g/a/b/c'/b/) (6:4:6(a/g/a/g/a/b/) | %80
[Q:1/4=118] (6:4:6(=c'/b/a/b/c'/b/) (6:4:6(a/b/c'/b/a/b/)[Q:1/4=120] (6:4:6(c'/b/a/b/c'/b/) (6:4:6(a/b/c'/b/c'/d'/) | %81
!ff! (3[e=c'e'][Aa][Bdb] (3[=cec'][d=fd'][ege'] [fa=f'] z [e^ge'] z || %82
[K:A][M:6/8]"^Allegro vivace"[Q:3/8=120] z6 | z3 z!p!"_cresc." .[^A,C].[CE] | %84
 .[B,D].[DF].[B,D] .[G,B,].[B,D].[G,B,] | .[^A,C].[CE].[A,C] .[B,D].[DF].[B,D] | %86
 .[EG].[CE].[A,C] .[F,A,].[EG].[CE] | .[FA].[DF].[B,D] .[G,B,].[FA].[DF] | %88
 .[GB].[CE].[FA] .[B,D].[EG].[A,C] | .[DF].[G,B,].[CE] .[F,A,].[EG].[CE] | %90
 .[FA].[B,D].[EG] .[A,C].[DF].[G,B,] | .[CE].[F,A,].[B,D] z!mf! .[^Ac].[ce] | %92
 .[Bd].[df].[Bd] .[GB].[Bd].[GB] | .[^Ac].[ce].[Ac] .[Bd].[df].[Bd] | %94
!<(! .[eg].[ce].[Ac] .[FA].[eg].[ce] | .[fa].[df].[Bd] .[GB].[fa].[df]!<)! | %96
!f! .[gb].[ce].[fa] .[Bd].[eg].[Ac] | .[df].[GB].[ce] .[FA].[eg].[ce] | %98
 .[fa].[Bd].[eg] .[Ac].[df].[GB] | .[ce].[FA].[Bd] .[EG].[df].[Bd] | %100
!>(! .[eg].[ce].[Ac] .[df].[Bd].[GB] | [ce].[Ac].[FA] .[Bd].[GB].[EG] | %102
 .[Ac].[FA].[DF] .[GB].[EG].[CE] | .[FA].[DF].[B,D]!>)!!p! .[EG].[^Ac].[ce] | %104
 .[Bd].[df].[Bd] .[GB].[Bd].[GB] | .[^Ac].[ce].[Ac] .[Bd].[Bd].[df] | %106
"_cresc." .[ce].[eg].[ce] .[Ac].[ce].[Ac] | .[Bd].[df].[Bd] .[ce].[ce].[eg] | %108
 .[df].[fa].[df] .[Bd].[df].[fa] | .[eg].[gb].[eg] .[ce].[eg].[gb] | %110
 .[fa].[ac'].[fa] .[df].[fa].[ac'] | .[gb].[bd'].[gb] .[eg].[gb].[bd'] | %112
!ff! .[^ac'].[c'e'].[=ga] .[ac'].[c'e'].[ga] | .[^ac'].[c'e'].[=ga] .[ac'].[c'e'].[ga] | %114
 .[bd'].[c'e'].[gb] .[bd'].[c'e'].[gb] | .[bd'].[c'e'].[gb] .[bd'].[c'e'].[gb] | %116
[Q:1/4=100]"^Meno" [^e=c'^e'] z z!p! [Aa]3- | [Aa]3 [Aa]3- | [Aa]3 [Aa]3- | [Aa]3 [Aa]3- | [Aa]6- | %121
 [Aa]3 a>(_ba | =g) z z [_B_b]3- | [Bb]3 [_B_b]3- | [Bb]6- | [Bb]3 _b>=c'b | %126
!p!"_dim." !///-![_E_B]3 [=G,_B,]3 | !///-![_E_B]3 [=G,_B,]3 | !///-![_E_B]3 [=G,_B,]3 | %129
 !///-![_E_B]3 [=G,_B,]3 |!ppp! [_B,_E_B] z z4 | z6 | z2 z!mp! .[_B,_E_B] z2 | %133
 [A,EA] z z [DFAd] z2 |] %134
V:2
!mp!!>(! .F,.F,.D,.D, .F,.F,.D,.D, | .F,.F,.D,.D, .F,.F,.D,.D,!>)! | %2
!p! .F,.F,.D,.D, .F,.F,.^D,.D, | .G,.G,.E,.E, .F,.F,.D,.D, | .F,.F,.D,.D, .B,,.B,,.E,.E, | %5
 .E,.E,.^B,,.B,, .D,.D,.F,.F, | .F,.F,.D,.D, .F,.F,.^D,.D, | .G,.G,.E,.E, .F,.F,.D,.D, | %8
 .F,.F,.D,.D, .D,.D,.B,,.B,, | .^G,.G,.F,.F, .E,.E,.A,,.A,, | .F,.F,.D,.D, .F,.F,.^D,.D, | %11
 .G,.G,.E,.E, .F,.F,.D,.D, | .F,.F,.D,.D, .B,,.B,,.E,.E, | .E,.E,.^B,,.B,, .D,.D,.F,.F, | %14
 .F,.F,.D,.D, .F,.F,.^D,.D, | .G,.G,.E,.E, .F,.F,.D,.D, | .F,.F,.D,.D, .E,.E,.B,,.B,, | %17
 .E,.E,._B,,.B,,!mp! (A,/B,/C/D/) z2 |!p!!<(! _E,E,E,E, [=C,_F,][C,F,][C,F,][C,F,] | %19
 [G,,C,_E,][G,,C,E,][G,,C,E,][G,,C,E,]!<)!!mf! [E,,B,,=E,] z z2 | %20
!p!!<(! _E,E,E,E, [=C,_F,][C,F,][C,F,][C,F,] | %21
 [G,,C,_E,][G,,C,E,][G,,C,E,][G,,C,E,]!<)!!mf! [E,,B,,=E,] z z2 | %22
!p!!<(! [=C,F,][C,F,][C,F,][C,F,] [C,E,][C,E,][C,E,][C,E,] | %23
 [=C,=F,][C,F,][C,F,][C,F,]!<)!!mf! [^C,^F,] z z2 | %24
!p!!<(! [=C,F,][C,F,][C,F,][C,F,] [C,E,][C,E,][C,E,][C,E,] | %25
 [=C,=F,][C,F,][C,F,][C,F,]!<)!!mf! [^C,^F,] z z2 |[K:treble] [DF]4 [CE]4 | [A,=CF]4 [G,CG]4 | %28
 [EA]4 [EA]4 | [GA]4 [Ec]4 | %30
!p!"_cresc." (A,,,/B,,,/^B,,,/C,,/ B,,,/C,,/^D,,/E,,/) (F,,/G,,/A,,/B,,/ A,,/B,,/^D,/E,/) | %31
 (C,/D,/E,/F,/ =F,/^F,/G,/_A,/) (=A,/B,/C/D/ C/D/=F/!mp!^F/) | .F,.F,.D,.D, .F,.F,.^D,.D, | %33
 .G,.G,.E,.E, .F,.F,.D,.D, | .F,.F,.D,.D, .B,,.B,,.E,.E, | .E,.E,.^B,,.B,, .D,.D,.F,.F, | %36
 .F,.F,.D,.D, .F,.F,.^D,.D, | .G,.G,.E,.E, .F,.F,.D,.D, | .F,.F,.D,.D, .F,.F,.E,.E, | %39
 .F,.F,._E,.E, .D, z z2 |[K:treble] z (D/E/ F).D (7:4:7(C/D/C/D/C/D/C/ B,) z | %41
 z (g/a/ b).g (7:4:7(f/g/f/g/f/g/f/ e) z |[K:bass]!<(! A,, z B,, z ^B,, z C,!<)!!mf! z | %43
 D, z!>(! .B,,.D,!>)!!p! .F, z z2 |[K:treble] z (D/E/ F).D (7:4:7(C/D/C/D/C/D/C/ B,) z | %45
 z (g/a/ b).g (7:4:7(f/g/f/g/f/g/f/ e) z |[K:bass]!<(! A,, z B,, z ^B,, z C,!<)!!mf! z | %47
 D, z E, z A,,/ A,,7/2 |[K:treble] z/!mp! (F/^E/F/ .A).G (!>!F2 =E2) | z/ (B/^A/B/ .=c).B B4 | %50
 z/ (E/^D/E/ .G).F (E2 =D2) | z/ (A/^G/A/ .B).A A4 | %52
[K:bass]"_cresc." .^G,/(G,/^^F,/G,/ .A,).G, A,4 | .=F,/(^F,/^E,/F,/ .G,).F, G,4 | %54
!f!!>(! .E,/(E,/^D,/E,/ .F,).E, .E,/!>)!!p!.E,/.D,/.E,/ (.C,/.B,,/.^A,,/.B,,/) | %55
 .C,/.D,/.C,/.D,/ .^D,/.E,/.D,/.E,/ .F, z z2 |[K:treble] z (D/E/ F).D (7:4:7(C/D/C/D/C/D/C/ B,) z | %57
 z (g/a/ b).g (7:4:7(f/g/f/g/f/g/f/ e) z |[K:bass]!<(! A,, z B,, z ^B,, z C,!<)!!mf! z | %59
 D, z!>(! .B,,.D,!>)!!p! .F, z z2 |[K:treble] z (D/E/ F).D (7:4:7(C/D/C/D/C/D/C/ B,) z | %61
 z (g/a/ b).g (7:4:7(f/g/f/g/f/g/f/ e) z |[K:bass]!<(! A,, z B,, z ^B,, z C,!<)!!mf! z | %63
 D, z E, z A,, z z2 | .F,.F,.D,.D, .F,.F,.^D,.D, | .G,.G,.E,.E, .F,.F,.D,.D, | %66
 .F,.F,.D,.D, .B,,.B,,.E,.E, | .E,.E,.^B,,.B,, .D,.D,.F,.F, | .F,.F,.D,.D, .F,.F,.^D,.D, | %69
 .G,.G,.E,.E, .F,.F,.D,.D, | .F,.F,.D,.D, .F,.F,.E,.E, | .F,.F,._E,.E, .D, z F,,2- | %72
 F,,4 !>!B,,2 !>!F,2 | !>!=C,2 !>!A,,2 !>!=F,,2 !>!A,,,2- | A,,,4 !>!D,2 !>!A,2 | %75
 !>!_E,2 (!>!=C,2 !>!_A,,) z z2 | %76
!p! (6:4:6([F,,_E,]/[=C,=F,]/[F,,E,]/[C,F,]/[F,,E,]/[C,F,]/) (6:4:6([_G,_E]/[_B,=F]/[G,E]/[B,F]/[G,E]/[B,F]/ [^D^F]) z z2 | %77
!mp! (6:4:6([A,,F,]/[C,^G,]/[A,,F,]/[C,G,]/[A,,F,]/[C,G,]/) (6:4:6([A,F]/[^B,^G]/[A,F]/[B,G]/[A,F]/[B,G]/ [FA]) z z2 | %78
 (6:4:6(A,/B,/=C/D/_E/D/ (3:2:5C/B,/A,/^G,/A,) (6:4:6(A,/B,/C/D/E/D/ (3:2:5C/B,/A,/G,/A,) | %79
 (6:4:6(A,/B,/=C/D/_E/D/) (6:4:6(C/B,/A,/B,/C/D/) (6:4:6(E/D/C/B,/A,/B,/) (6:4:6(C/D/E/D/C/B,/) | %80
 (6:4:6(A,/B,/=C/B,/A,/B,/) (6:4:6(C/B,/A,/B,/C/B,/) (6:4:6(A,/B,/C/B,/A,/B,/) (6:4:6(C/B,/A,/B,/C/D/) | %81
 (3[E,=CE][A,,A,][B,,B,] (3[=C,C][D,D][E,E] [=F,=F] z [E,^G,E] z ||[K:A][M:6/8]!pp! !//-!E,3 B,,3 | %83
 !//-!E,3 B,,3 | !//-!E,3 B,,3 | !//-!E,3 B,,3 | !//-!E,3 B,,3 | !//-!E,3 B,,3 | !//-!E,3 B,,3 | %89
 !//-!E,3 B,,3 | !//-!E,3 B,,3 | !//-!E,3/2 B,,3/2!mf! (2:3:2.[E,G,].[D,F,] | %92
 (2:3:2.[E,G,].[F,A,] (2:3:2.[G,B,].[B,D] | (2:3:2.[^A,C].[F,B,] (2:3:2.[B,D].[G,B,] | %94
!<(! (2:3:2.[A,C].[CE] (2:3:2.[CE].[A,C] | (2:3:2.[B,D].[DF] (2:3:2.[DF].[B,D]!<)! | %96
!f! (2:3:2.[G,B,].[A,C] (2:3:2.[B,D].[CE] | (2:3:2.[B,D].[CE] (2:3:2.[DF].[EG] | %98
 (2:3:2.[F,A,].[G,B,] (2:3:2.[A,C].[B,D] | (2:3:2.[A,C].[B,D] (2:3:2.[CE].[DF] | %100
!>(! (2:3:2.[EG].[FA] (2:3:2.[DF].[EG] | (2:3:2.[CE].[DF] (2:3:2.[B,D].[CE] | %102
 (2:3:2.[A,C].[B,D] (2:3:2.[G,B,].[A,C] | (2:3:2.[F,A,].[DF]!>)!!p! z .[G,B,].[^A,C] | %104
 .[=G,_B,].[^G,=B,].[E,G,] .[G,B,].[B,D].[G,B,] | .[B,D].[^A,C].[=G,A,] .[A,C].[B,D].[B,D] | %106
 .[G,B,].[A,C].[F,A,] .[A,C].[CE].[A,C] | .[CE].[B,D].[G,B,] .[B,D].[CE].[CE] | %108
 .[DF].[B,D].[DF] .[FA].[DF].[B,D] | .[EG].[CE].[EG] .[GB].[CE].[A,C] | %110
 .[DF].[B,D].[DF] .[FA].[DF].[B,D] | .[G,G].[E,E].[G,G] .[B,B].[G,G].[E,E] | %112
 .[=G,=G].[E,E].[^A,^A] .[G,G].[E,E].[A,A] | .[=G,=G].[E,E].[^A,^A] .[G,G].[E,E].[A,A] | %114
 .[G,G].[E,E].[B,B] .[G,G].[E,E].[B,B] | .[G,G].[E,E].[B,B] .[G,G].[E,E].[B,B] | %116
 [^E,=C^E] z z!pp! !///-![^B,E]3/2 [E,A,]3/2 | !///-![=C=F]3 [=F,A,]3 | %118
 !///-![DF]3/2 [D,A,]3/2 !///-![^B,^E]3/2 [^E,A,]3/2 | %119
 !///-![DF]3/2 [D,A,]3/2 !///-![^B,^E]3/2 [^E,A,]3/2 | !///-![DF]3 [D,A,]3 | !///-![DF]3 [D,A,]3 | %122
 !///-![_B,_E]3/2 [C,_E,]3/2 !///-![=B,=E]3/2 [=C,=E,]3/2 | %123
 !///-![_B,_E]3/2 [C,_E,]3/2 !///-![=B,=E]3/2 [=C,=E,]3/2 | !///-![_B,_E]3 [C,_E,]3 | %125
 !///-![_B,_E]3 [C,_E,]3 | !///-!_E,3 [=C,F,]3 | !///-!_E,3 [=C,F,]3 | !///-!_E,3 [=C,F,]3 | %129
 !///-!_E,3 [=C,F,]3 | !///-![_E,=G,]3 [=C,F,]3 | !///-![_E,=G,]3 [=C,F,]3 | %132
 [=C,_E,F,=G,] z z .[C,E,G,] z2 | [C,E,=G,] z z [D,F,A,] z2 |] %134
V:3
 z8 | z8 |!mp! A,,2 B,,4 ^B,,2- | B,,2 C,4 D,2- | D,2 F,4 G,2- | G,2 ^G,4 A,2 | A,,2 B,,4 ^B,,2- | %7
 B,,2 C,4 D,2- | D,2 F,4 E,2- | E,2 (D,4 C,) z | A,,2 B,,4 ^B,,2- | B,,2 C,4 D,2- | D,2 F,4 G,2- | %13
 G,2 ^G,4 A,2 | A,,2 B,,4 ^B,,2- | B,,2 C,4 D,2- | D,2 A,4 ^G,2- | G,2 (=G,2 F,) z z2 | z8 | %19
[K:treble] z4 z!f! ([GB]g[GB]) | z8 | z4 z ([GB]g[GB]) | z8 | z4 z (cac) | z8 | z4 z (cac) | %26
 z ([Ad][db][Ad]) z ([Ae][ec'][Ae]) | z ([=cf][f^d'][cf]) z ([cg][gg'][cg]) | %28
 z ([ca][ae'][ca]) z ([ca][ae'][ca]) | z ([ga][g'a'][ga]) z ([ga][g'a'][ga]) | z8 | z8 | %32
[K:bass]!mp! [A,,A,]2 [B,,B,]4 [^B,,^B,]2- | [B,,B,]2 [C,C]4 [D,D]2- | [D,D]2 [F,F]4 [G,G]2- | %35
 [G,G]2 [^G,^G]4 [A,A]2 | [A,,A,]2 [B,,B,]4 [^B,,^B,]2- | [B,,B,]2 [C,C]4 [D,D]2- | %38
 [D,D]2 [A,A]4 [^G,^G]2- | [G,G]2 ([=G,=G]2 [F,F]) z z2 | .B,,.B,,.F,.B,, .D,.F,.B,.F, | %41
 .E,.E,.B,.E, .G, z .G,, z |[K:treble] z!<(!{/b} a- a{/b}a- a{/b}a- a!<)!!mf!{/b}a | %43
 z{/g'} f'- f'{/g'}f'- f' z z2 |[K:bass]!p! .B,,.B,,.F,.B,, .D,.F,.B,.F, | %45
 .E,.E,.B,.E, .G, z .G,, z |[K:treble] z!<(!{/b} a- a{/b}a- a{/b}a- a!<)!!mf!{/b}a | %47
 z{/c'} b- b{/f'}e'- e' z z2 |[K:bass] A,,4 z/ (B,/^A,/B,/ .=C).B, | %49
 G,,4[K:treble] z/ (g/f/g/ .b).a | [eg]4 !>![eg]2 [df]2 | !>![df]2 [ce]2 !>![ce]2 [Bd]2 | d4 c4 | %53
 c4 B4 | B4 z4 | z8 |[K:bass]!p! .B,,.B,,.F,.B,, .D,.F,.B,.F, | .E,.E,.B,.E, .G, z .G,, z | %58
[K:treble] z!<(!{/b} a- a{/b}a- a{/b}a- a!<)!!mf!{/b}a | z{/g'} f'- f'{/g'}f'- f' z z2 | %60
[K:bass]!p! .B,,.B,,.F,.B,, .D,.F,.B,.F, | .E,.E,.B,.E, .G, z .G,, z | %62
[K:treble] z!<(!{/b} a- a{/b}a- a{/b}a- a!<)!!mf!{/b}a | z{/c'} b- b{/f'}e'- e' z z2 | %64
[K:bass]!mp! [A,,A,]2 [B,,B,]4 [^B,,^B,]2- | [B,,B,]2 [C,C]4 [D,D]2- | [D,D]2 [F,F]4 [G,G]2- | %67
 [G,G]2 [^G,^G]4 [A,A]2 | [A,,A,]2 [B,,B,]4 [^B,,^B,]2- | [B,,B,]2 [C,C]4 [D,D]2- | %70
 [D,D]2 [A,A]4 [^G,^G]2- | [G,G]2 ([=G,=G]2 (3[F,F])!pp!D,D, (3D,D,D, | %72
 (3D,D,D, (3D,D,D, (3^D,D,D, (3D,D,D, |!<(! (3E,E,E, (3E,E,E, (3=F,F,F, (3F,F,F,!<)! | %74
!p! (3=F,,F,,F,, (3F,,F,,F,, (3^F,,F,,F,, (3F,,F,,F,, | %75
 (3G,,G,,G,, (3G,,G,,G,, (3^G,,G,,G,, (3G,,G,,G,, | %76
 (3A,,A,,A,, (3^A,,A,,A,, (3B,,B,,B,, (3=C,C,C, | (3C,C,C, (3D,D,D, (3^D,D,D, (3E,E,E, | %78
 (3=F,F,F, (3_G,_G,_G, (3F,F,F, (3G,_G,_G, | (3=F,F,_G, (3F,F,_G, (3F,F,G, (3F,F,_G, | %80
 (3:2:2=F,2 F,- (3:2:2F, F,2 (3:2:2F,2 F,- (3:2:2F, F,2 | (3E,E,E, (3E,E,E, D, z E, z || %82
[K:A][M:6/8] z6 | z6 | z6 | z6 | z6 | z6 | z6 | z6 | z6 | z3!p! !//-!E,,3/2 B,,,3/2 | %92
 !//-!E,,3 B,,,3 | !//-!E,,3 B,,,3 | !//-!E,,3 B,,,3 | !//-!E,,3 B,,,3 | !//-!E,,3 B,,,3 | %97
 !//-!E,,3 B,,,3 | !//-!E,,3 B,,,3 | !//-!E,,3!mf! B,,,3 |!>(! E,,2- E,,/E,,/ E,,2- E,,/E,,/ | %101
 E,,2- E,,/E,,/ E,,2- E,,/E,,/ | E,,2- E,,/E,,/ E,,2- E,,/E,,/ | %103
 E,,2- E,,/E,,/!>)!!p! !//-!E,,3/2 B,,,3/2 | !//-!E,,3 B,,,3 | !//-!E,,3 B,,,3 | !//-!E,,3 B,,,3 | %107
 !//-!E,,3 B,,,3 | !//-!E,,3 B,,,3 | !//-!E,,3 B,,,3 | !//-!E,,3 B,,,3 | !//-!E,,3 B,,,3 | %112
 E,,2- E,,/E,,/ E,,2- E,,/E,,/ | E,,2- E,,/E,,/ E,,2- E,,/E,,/ | E,,2- E,,/E,,/ E,,2- E,,/E,,/ | %115
 E,,2- E,,/E,,/ E,,2- E,,/E,,/ | [=F,,A,,=C,] z z4 | z6 | z6 | z6 | %120
!p!!<(! z3 (3(D,/F,/A,/(3D/F/A/[K:treble] (3d/f/a/ | %121
 (3d'/a/f/(3d/A/F/[K:bass] (3D/A,/F,/ D,)!<)!!mp! z2 | z6 | z6 | %124
 z3 (3(_E,/=G,/_B,/(3_E/=G/_B/[K:treble] (3_e/=g/_b/ | %125
 (3_e'/_b/=g/(3_e/_B/=G/[K:bass] (3_E/_B,/=G,/ _E,) z2 | %126
!p! (34:16:34(=C,,3/8D,,3/8_E,,3/8F,,3/8=G,,3/8A,,3/8_B,,3/8=C,3/8D,3/8_E,3/8F,3/8=G,3/8A,3/8_B,3/8=C3/8[K:treble]D3/8_E3/8 F3/8=G3/8A3/8_B3/8=c3/8d3/8_e3/8f3/8=g3/8a3/8_b3/8=c'3/8d'3/8_e'3/8f'3/8=g'3/8a'3/8) | %127
 (34:16:34(_b'3/8a'3/8=g'3/8f'3/8_e'3/8d'3/8=c'3/8_b3/8a3/8=g3/8f3/8_e3/8d3/8=c3/8_B3/8A3/8=G3/8 F3/8_E3/8D3/8=C3/8_B,3/8A,3/8[K:bass]=G,3/8F,3/8_E,3/8D,3/8=C,3/8_B,,3/8A,,3/8=G,,3/8F,,3/8_E,,3/8D,,3/8) | %128
 (34:16:34(=C,,3/8D,,3/8_E,,3/8F,,3/8=G,,3/8A,,3/8_B,,3/8=C,3/8D,3/8_E,3/8F,3/8=G,3/8A,3/8_B,3/8=C3/8[K:treble]D3/8_E3/8 F3/8=G3/8A3/8_B3/8=c3/8d3/8_e3/8f3/8=g3/8a3/8_b3/8=c'3/8d'3/8_e'3/8f'3/8=g'3/8a'3/8) | %129
 (34:16:34(_b'3/8a'3/8=g'3/8f'3/8_e'3/8d'3/8=c'3/8_b3/8a3/8=g3/8f3/8_e3/8d3/8=c3/8_B3/8A3/8=G3/8 F3/8_E3/8D3/8=C3/8_B,3/8A,3/8[K:bass]=G,3/8F,3/8_E,3/8D,3/8=C,3/8_B,,3/8A,,3/8=G,,3/8F,,3/8_E,,3/8D,,3/8) | %130
!p! (34:16:34(=C,,3/8D,,3/8_E,,3/8F,,3/8=G,,3/8A,,3/8_B,,3/8=C,3/8D,3/8_E,3/8F,3/8=G,3/8A,3/8_B,3/8=C3/8[K:treble]D3/8_E3/8 F3/8=G3/8A3/8_B3/8=c3/8d3/8_e3/8f3/8=g3/8a3/8_b3/8=c'3/8d'3/8_e'3/8f'3/8=g'3/8a'3/8) | %131
 (34:16:34(_b'3/8a'3/8=g'3/8f'3/8_e'3/8d'3/8=c'3/8_b3/8a3/8=g3/8f3/8_e3/8d3/8=c3/8_B3/8A3/8=G3/8 F3/8_E3/8D3/8=C3/8_B,3/8A,3/8[K:bass]=G,3/8F,3/8_E,3/8D,3/8=C,3/8_B,,3/8A,,3/8=G,,3/8F,,3/8_E,,3/8!ppp!D,,3/8) | %132
 z6 | z6 |] %134
V:4
 x8 | x8 | x8 | x8 | x8 | x8 | x8 | x8 | x8 | x8 | x8 | x8 | x8 | x8 | x8 | x8 | x8 | x8 | x8 | %19
 x8 | x8 | x8 | x8 | x8 | x8 | x8 | x8 | x8 | x8 | x8 | x8 | x8 | x8 | x8 | x8 | x8 | x8 | x8 | %38
 x8 | x8 | x321/40 | x321/40 | x8 | x8 | x321/40 | x321/40 | x8 | x8 | x8 | x8 | x8 | x8 | x8 | %53
 x8 | x8 | x8 | x321/40 | x321/40 | x8 | x8 | x321/40 | x321/40 | x8 | x8 | x8 | x8 | x8 | x8 | %68
 x8 | x8 | x8 | x8 | x8 | x8 | x8 | x8 |[K:bass] x4[K:treble] x4 | x8 | x8 | x8 | x8 | x8 || %82
[K:A][M:6/8] x6 | x6 | x6 | x6 | x6 | x6 | x6 | x6 | x6 | x6 | x6 | x6 | x6 | x6 | x6 | x6 | x6 | %99
 x6 | x6 | x6 | x6 | x6 | x6 | x6 | x6 | x6 | x6 | x6 | x6 | x6 | x6 | x6 | x6 | x6 | x6 | x6 | %118
 x6 | x6 | x6 | x6 | x6 | x6 | x6 | x6 | _e'6 | x6 | x6 | x6 | x6 | x6 | x6 | x6 |] %134

